!!!OTL: Graf und Nonne (Die Nonne) Ich stand auf hohen Berge
!!!ARE: Europa, Suedosteuropa, Rumaenien, Bukowina, Alt - Fratautz
!!!YOR: 8, S. 95
!!    1941 aufgezeichnet in einem Rueckwandererlager
!!!SCT: Q0155j
!!!YEM: Copyright 1995, estate of Helmut Schaffrath.
**kern
*ICvox
*Ivox
*M6/8
*k[b-]
*F:
{8c
=1
4a
8a
4g
8g
=2
4.f
4g}
{8g
=3
4a
8a
4dd
8dd
=4
4.cc
4r}
{8cc
=5
8cc
8cc
8cc
8ff
8ee
8dd
=6
4.dd
4cc}
{8cc
=7
8cc
8dd
8cc
8b-
8g
8cc
=8
4.a
4r}
==
!!!AGN: Ballade, Standesunterschied, vergebliche Werbung, Liebe, Klage, Tod
!!!ONB: ESAC (Essen Associative Code) Database: BALLADE
!!!AMT: compound duple
!!!AIN: vox
!!!EED: Helmut Schaffrath
!!!EEV: 1.0
*-
